resources/svg/align-text-center.svg

<svg viewBox="0 0 15 15" fill="none" xmlns="http://www.w3.org/2000/svg" fill="currentColor"><path fill-rule="evenodd" clip-rule="evenodd" d="M0 3h15v1H0V3zm5 4h5v1H5V7zm-2 4h9v1H3v-1z" fill="currentColor"/></svg>

<svg width="15" height="15" viewBox="0 0 15 15" fill="none" xmlns="http://www.w3.org/2000/svg">
<path fill-rule="evenodd" clip-rule="evenodd" d="M0 3H15V4H0V3ZM5 7H10V8H5V7ZM3 11H12V12H3V11Z" fill="black"/>
</svg>
